X:199
T:Willie with his tartan Trues. Ru2.199
%%VWML:RutherfordVol2-2249-p100-0
F:http://www.vwml.org/record/RutherfordVol2/2249/p100
Z:vmp.Ruairidh Greig 2015 www.village-music-project.org.uk
T:Duchess of Hamilton's Rant,aka. Ru2.199
M:6/8
L:1/8
Q:1/4=120
K:D
f|ecA def|edec2f|ecA edc|BcB d2f|
ecA def|ede"tr"c2e|faf edc|BcBd2:|
|:f|ecA acA|ecA d2f|ecA acA|BcBd2f|
ecA acA|ecA cde|faf edc|BcBd2:|
W:Hay Contrary sides .| Hay on your Own sides :|
W:Cross over two Couple .|. Lead up to the Top foot it
W:And Cast off :||: Foot it Corners & turn .|| Foot it the
W:Other Corners & turn :| Lead out Each side & turn
W:your Partner :|
